symbols/web/filter_3/materialsymbolsoutlined/filter_3_wght200_40px.svg

<svg xmlns="http://www.w3.org/2000/svg" height="40" width="40"><path d="M17.875 24.458h5.792q1 0 1.708-.708t.708-1.708v-3.084q0-1-.479-1.479-.479-.479-1.062-.562.583-.084 1.062-.521.479-.438.479-1.438v-3.125q0-1.041-.708-1.75-.708-.708-1.708-.708h-5.792v1.417h5.792q.416 0 .729.291.312.292.312.75v3.375q0 .417-.312.709-.313.291-.729.291h-3v1.417h3q.416 0 .729.292.312.291.312.75v3.375q0 .416-.312.708-.313.292-.729.292h-5.792Zm-5.125 4.375q-1 0-1.708-.708-.709-.708-.709-1.708v-19q0-1 .709-1.709Q11.75 5 12.75 5h19q1 0 1.708.708.709.709.709 1.709v19q0 1-.709 1.708-.708.708-1.708.708Zm0-1.416h19q.375 0 .688-.313.312-.312.312-.687v-19q0-.375-.312-.688-.313-.312-.688-.312h-19q-.375 0-.688.312-.312.313-.312.688v19q0 .375.312.687.313.313.688.313Zm-4.5 5.916q-1 0-1.708-.708-.709-.708-.709-1.708V10.5H7.25v20.417q0 .375.312.687.313.313.688.313h20.417v1.416Zm3.5-26.916v21-21Z"/></svg>

<svg xmlns="http://www.w3.org/2000/svg" height="40" width="40"><path d="M17.875 24.458H23.667Q24.667 24.458 25.375 23.75Q26.083 23.042 26.083 22.042V18.958Q26.083 17.958 25.604 17.479Q25.125 17 24.542 16.917Q25.125 16.833 25.604 16.396Q26.083 15.958 26.083 14.958V11.833Q26.083 10.792 25.375 10.083Q24.667 9.375 23.667 9.375H17.875V10.792H23.667Q24.083 10.792 24.396 11.083Q24.708 11.375 24.708 11.833V15.208Q24.708 15.625 24.396 15.917Q24.083 16.208 23.667 16.208H20.667V17.625H23.667Q24.083 17.625 24.396 17.917Q24.708 18.208 24.708 18.667V22.042Q24.708 22.458 24.396 22.75Q24.083 23.042 23.667 23.042H17.875ZM12.75 28.833Q11.75 28.833 11.042 28.125Q10.333 27.417 10.333 26.417V7.417Q10.333 6.417 11.042 5.708Q11.75 5 12.75 5H31.75Q32.75 5 33.458 5.708Q34.167 6.417 34.167 7.417V26.417Q34.167 27.417 33.458 28.125Q32.75 28.833 31.75 28.833ZM12.75 27.417H31.75Q32.125 27.417 32.438 27.104Q32.75 26.792 32.75 26.417V7.417Q32.75 7.042 32.438 6.729Q32.125 6.417 31.75 6.417H12.75Q12.375 6.417 12.062 6.729Q11.75 7.042 11.75 7.417V26.417Q11.75 26.792 12.062 27.104Q12.375 27.417 12.75 27.417ZM8.25 33.333Q7.25 33.333 6.542 32.625Q5.833 31.917 5.833 30.917V10.5H7.25V30.917Q7.25 31.292 7.562 31.604Q7.875 31.917 8.25 31.917H28.667V33.333ZM11.75 6.417Q11.75 6.417 11.75 6.708Q11.75 7 11.75 7.417V26.417Q11.75 26.875 11.75 27.146Q11.75 27.417 11.75 27.417Q11.75 27.417 11.75 27.146Q11.75 26.875 11.75 26.417V7.417Q11.75 7 11.75 6.708Q11.75 6.417 11.75 6.417Z"/></svg>
